X: 23274
T: Leaving Stoer
R: strathspey
M: 4/4
K: Amajor
AB|c3 A e3 b|a4 a>g f<e|d3 c e>d c<B|A>B c<d B>A G<E|
c3 A e3 b|a4 a>g f<e|d>c B<A c>B AG|A6:|
z2|c>d e<f B4|A>B c<d B>A G<E|c>d e<f e3 g|a2 g2 f>A f/e/d|
c>d e<f B4|A>B c<d B>A G<E|F>E DE C/E/A- Ad|c2 B>A A2:|

